X:1780
T:Boogie Reel, The
R:reel
C:John Nolan
S:Ir-Trad, Paul (PTK3509@AOL.COM), 4/97
B:from Philippe Varlet
M:C|
L:1/8
Q:240
K:D
DEFA d2 cd|BAFB AFEF|DEFA dfec|dBAF EGFE|
DEFA ~d3 e|fd~d2 BAFA|edef {a}gece|1 dAFA d2 FE:|2 dAFA d2 cd||
:eA (3AAA EA (3AAA|edef ~g2 ag|fd~d2 Ad~d2|fgaf d2 cd|
Be (3eee Beed|cdef {a}gefg|afdf {a}gece |1 dAFA d2 cd:|2dAFA d4||


